X: 352
T:George Reynolds
C:Turlough O'Carolan
M:6/8
L:1/8
R:Jig
Z:Philippe Varlet
K:D
D2D DED|FAA A3 |B/c/dc/B/ cde|dEE E2A|
FDF BAB|AFA f2e|de/d/c/b/ ABc|dDD D3||
f/g/af e/f/ge|dAd dAd|bg/a/b/g/ af/g/a/f/|eBe efg|
fg/f/e/d/ cde|AB/A/G FGA|B/c/dB cAc|dDD D3||
<end>
<start>
